source/static/icons/tw.svg

<svg xmlns="http://www.w3.org/2000/svg" width="18" height="18" viewBox="0 0 18 18">
  <defs>
    <style>
      .cls-1 {
        fill-rule: evenodd;
      }
    </style>
  </defs>
  <path id="Фигура_5" data-name="Фигура 5" class="cls-1" d="M16.2,0H1.8A1.793,1.793,0,0,0,0,1.8V16.2A1.793,1.793,0,0,0,1.8,18H16.2A1.793,1.793,0,0,0,18,16.2V1.8A1.793,1.793,0,0,0,16.2,0h0ZM14.1,6.6c-0.1,4.1-2.7,7-6.7,7.2a6.2,6.2,0,0,1-3.9-1.1,4.708,4.708,0,0,0,3.5-1A2.248,2.248,0,0,1,4.9,10a3.334,3.334,0,0,0,1,0A2.484,2.484,0,0,1,4,7.6a1.689,1.689,0,0,0,1,.3,2.7,2.7,0,0,1-.8-3.3A7.067,7.067,0,0,0,9.1,7.1C8.6,4.6,12,3.2,13.3,4.9a13.081,13.081,0,0,0,1.5-.5,2.209,2.209,0,0,1-1,1.3,6.468,6.468,0,0,0,1.3-.4,2.43,2.43,0,0,1-1,1.3h0Z"/>
</svg>

<svg version="1.1" id="Layer_1" xmlns="http://www.w3.org/2000/svg" xmlns:xlink="http://www.w3.org/1999/xlink" x="0px" y="0px"
	 viewBox="0 0 18 18" enable-background="new 0 0 18 18" xml:space="preserve">
<path d="M16.2,0H1.8C0.8,0,0,0.8,0,1.8v14.4c0,1,0.8,1.8,1.8,1.8h14.4c1,0,1.8-0.8,1.8-1.8V1.8C18,0.8,17.2,0,16.2,0L16.2,0z
	 M14.1,6.6c-0.1,4.1-2.7,7-6.7,7.2c-1.6,0.1-2.8-0.4-3.9-1.1c1.2,0.2,2.7-0.3,3.5-1C5.9,11.6,5.2,11,4.9,10c0.4,0.1,0.7,0,1,0
	C4.8,9.6,4.1,9,4,7.6c0.3,0.2,0.6,0.3,1,0.3C4.1,7.4,3.6,5.7,4.2,4.6c1.2,1.3,2.6,2.3,4.9,2.5C8.6,4.6,12,3.2,13.3,4.9
	c0.6-0.1,1.1-0.4,1.5-0.5c-0.2,0.6-0.5,1-1,1.3c0.4-0.1,0.9-0.2,1.3-0.4C15,5.8,14.6,6.2,14.1,6.6L14.1,6.6z"/>
</svg>
